docs/img/icons/arrow-circular.svg

<svg width="22" height="20" viewBox="0 0 22 20" fill="none" xmlns="http://www.w3.org/2000/svg">
<path fill-rule="evenodd" clip-rule="evenodd" d="M21 1C20.4477 1 20 1.44772 20 2V7H15C14.4477 7 14 7.44772 14 8C14 8.55228 14.4477 9 15 9H21C21.5523 9 22 8.55228 22 8V2C22 1.44772 21.5523 1 21 1Z" fill="#397345"/>
<path fill-rule="evenodd" clip-rule="evenodd" d="M11.3946 0.10688C9.24772 -0.195179 7.06079 0.208678 5.16335 1.2576C3.26592 2.30652 1.76077 3.94369 0.874701 5.92242C-0.0113716 7.90115 -0.230371 10.1142 0.250704 12.2283C0.731777 14.3423 1.88686 16.2427 3.54192 17.6431C5.19697 19.0436 7.26234 19.8683 9.42682 19.9928C11.5913 20.1174 13.7376 19.5352 15.5424 18.3338C17.3472 17.1325 18.7127 15.3772 19.4332 13.3323C19.6167 12.8114 19.3432 12.2404 18.8223 12.0568C18.3014 11.8733 17.7303 12.1468 17.5468 12.6677C16.9705 14.3036 15.8781 15.7079 14.4342 16.6689C12.9904 17.63 11.2733 18.0958 9.54174 17.9961C7.81016 17.8965 6.15786 17.2368 4.83382 16.1164C3.50977 14.996 2.5857 13.4757 2.20085 11.7845C1.81599 10.0933 1.99119 8.32279 2.70004 6.7398C3.4089 5.15682 4.61302 3.84709 6.13097 3.00795C7.64892 2.16881 9.39846 1.84573 11.116 2.08737C12.8335 2.32902 14.426 3.12231 15.6535 4.34772C15.6606 4.35484 15.6679 4.36186 15.6752 4.36876L20.3152 8.72876C20.7177 9.10696 21.3506 9.08727 21.7288 8.68479C22.1069 8.28231 22.0873 7.64945 21.6848 7.27126L17.0555 2.92135C15.5227 1.39582 13.5364 0.408219 11.3946 0.10688Z" fill="#397345"/>
</svg>

<svg width="22" height="20" fill="none" xmlns="http://www.w3.org/2000/svg"><path fill-rule="evenodd" clip-rule="evenodd" d="M21 1a1 1 0 00-1 1v5h-5a1 1 0 100 2h6a1 1 0 001-1V2a1 1 0 00-1-1z" fill="#397345"/><path fill-rule="evenodd" clip-rule="evenodd" d="M11.395.107a10 10 0 108.038 13.225 1 1 0 00-1.886-.664 8 8 0 11-1.872-8.3l4.64 4.36a1 1 0 001.37-1.457l-4.63-4.35a10 10 0 00-5.66-2.814z" fill="#397345"/></svg>
